src/images/svg/symbols/markets-stocks-and-indices/american-stocks/stocks-nvidia-corp.svg

<svg width="32" height="32" viewBox="0 0 32 32" fill="none" xmlns="http://www.w3.org/2000/svg">
<path d="M0 16C0 7.16344 7.16344 0 16 0C24.8366 0 32 7.16344 32 16C32 24.8366 24.8366 32 16 32C7.16344 32 0 24.8366 0 16Z" fill="#80BC00"/>
<path d="M12.955 12.74V11.3075H13.375C17.305 11.18 19.8775 14.675 19.8775 14.675C19.8775 14.675 17.095 18.5375 14.1175 18.5375C13.7229 18.5398 13.3304 18.479 12.955 18.3575V14.0075C14.455 14.1875 14.7925 14.8625 15.7075 16.3925L17.7475 14.675C17.261 14.0789 16.6526 13.5938 15.9631 13.2523C15.2736 12.9107 14.519 12.7207 13.75 12.695C13.4868 12.6946 13.2239 12.7097 12.9625 12.74H12.955ZM12.9625 8V10.145H13.3825C18.8425 9.9575 22.3825 14.645 22.3825 14.645C22.3825 14.645 18.295 19.61 14.0425 19.61C13.6754 19.6094 13.309 19.5767 12.9475 19.5125V20.84C13.2509 20.8794 13.5565 20.8994 13.8625 20.9C17.8225 20.9 20.68 18.875 23.455 16.4825C23.9125 16.85 25.795 17.75 26.185 18.14C23.545 20.345 17.4025 22.1225 13.9225 22.1225C13.585 22.1225 13.2625 22.1225 12.9475 22.0775V23.9375H28V8H12.9625ZM12.9625 18.335V19.46C9.3025 18.8075 8.2825 15.005 8.2825 15.005C9.54566 13.7509 11.1941 12.9583 12.9625 12.755V14C11.4625 13.82 10.2325 15.2525 10.2325 15.2525C10.2325 15.2525 10.9075 17.66 12.97 18.3575L12.9625 18.335ZM6.4525 14.84C7.22672 13.8267 8.20612 12.9883 9.32665 12.3796C10.4472 11.7709 11.6836 11.4055 12.955 11.3075V10.145C8.155 10.5275 4 14.5925 4 14.5925C4 14.5925 6.355 21.4025 12.955 22.025V20.7875C8.11 20.18 6.4525 14.84 6.4525 14.84Z" fill="black"/>
</svg>

<svg width="32" height="32" fill="none" xmlns="http://www.w3.org/2000/svg"><path d="M0 16C0 7.163 7.163 0 16 0s16 7.163 16 16-7.163 16-16 16S0 24.837 0 16Z" fill="#80BC00"/><path d="M12.955 12.74v-1.433h.42c3.93-.127 6.503 3.368 6.503 3.368s-2.783 3.863-5.76 3.863a3.705 3.705 0 0 1-1.163-.18v-4.35c1.5.18 1.838.855 2.752 2.384l2.04-1.717a5.393 5.393 0 0 0-3.997-1.98 6.75 6.75 0 0 0-.787.045h-.008ZM12.963 8v2.145h.42c5.46-.188 9 4.5 9 4.5s-4.088 4.965-8.34 4.965c-.368 0-.734-.033-1.095-.098v1.328c.303.04.608.06.915.06 3.96 0 6.817-2.025 9.592-4.417.458.367 2.34 1.267 2.73 1.657-2.64 2.205-8.782 3.982-12.262 3.982-.338 0-.66 0-.976-.044v1.86H28V8H12.963Zm0 10.335v1.125c-3.66-.652-4.68-4.455-4.68-4.455a7.928 7.928 0 0 1 4.68-2.25V14c-1.5-.18-2.73 1.252-2.73 1.252s.675 2.408 2.737 3.106l-.008-.023Zm-6.51-3.495a9.06 9.06 0 0 1 6.502-3.533v-1.162C8.155 10.528 4 14.592 4 14.592s2.355 6.81 8.955 7.433v-1.237C8.11 20.18 6.452 14.84 6.452 14.84Z" fill="#000"/></svg>
